static/img/noun-reduction-7894266.svg

<svg width="99" height="99" viewBox="0 0 99 99" fill="none" xmlns="http://www.w3.org/2000/svg">
<path d="M87.021 43.1541L83.8925 41.9475C87.1139 38.5405 89.0939 33.9463 89.0939 28.8993C89.0939 18.4235 80.5741 9.90039 70.0974 9.90039C65.0468 9.90039 60.4523 11.8804 57.0451 15.1056L55.8346 11.9732C55.3512 10.7125 54.0712 9.90039 52.5784 9.90039H46.418C44.9252 9.90039 43.6414 10.7125 43.1541 11.9732L41.6498 15.8713C37.9721 16.7298 34.4878 18.1762 31.2779 20.1755L27.4533 18.4856C26.2197 17.9365 24.7386 18.2652 23.6751 19.3248L19.3168 23.6831C18.261 24.7388 17.9323 26.2161 18.4737 27.4536L20.1714 31.2821C18.1721 34.4918 16.7257 37.9762 15.8711 41.654L11.9691 43.1583C10.7122 43.6455 9.89624 44.9256 9.89624 46.4221V52.5826C9.89624 54.0792 10.7084 55.3592 11.9691 55.8465L15.8672 57.347C16.7179 61.0208 18.1643 64.5052 20.1714 67.7222L18.4737 71.5507C17.9284 72.7843 18.261 74.2654 19.3168 75.3173L23.6751 79.6756C24.7347 80.7352 26.2197 81.0678 27.4494 80.5187L31.2702 78.8249C34.4799 80.8242 37.9643 82.2705 41.6454 83.1252L43.1536 87.031C43.6408 88.2878 44.9248 89.1 46.4174 89.1H52.5779C54.0706 89.1 55.3467 88.2879 55.8379 87.0272L57.3422 83.1252C61.1359 82.2434 64.7209 80.7352 68.0194 78.6354L73.4141 84.0301L70.5253 86.9189C70.2005 87.2438 70.1077 87.731 70.2856 88.1525C70.4635 88.5663 70.8695 88.837 71.3181 88.837H71.3375L87.4712 88.5586C88.0745 88.547 88.5656 88.0597 88.5733 87.4565L88.844 71.3228C88.8517 70.8665 88.581 70.4488 88.1595 70.2709C87.738 70.093 87.2507 70.1858 86.9259 70.5107L84.0371 73.3995L78.6423 68.0047C80.7344 64.7061 82.2388 61.1289 83.1166 57.354L87.0147 55.8535C88.2715 55.3662 89.0875 54.0862 89.0875 52.5896V46.4292C89.0914 44.921 88.2793 43.6409 87.0186 43.1537L87.021 43.1541ZM70.0978 12.1473C79.3329 12.1473 86.8503 19.6651 86.8503 28.9039C86.8503 38.1422 79.3363 45.6604 70.0978 45.6604C60.8595 45.6604 53.3412 38.1426 53.3412 28.9039C53.3451 19.6614 60.8591 12.1473 70.0978 12.1473ZM72.3253 49.5C72.3253 52.9457 71.548 56.341 70.0669 59.4157L53.0504 42.3992C52.8416 42.1904 52.5554 42.0705 52.2577 42.0705C51.9599 42.0705 51.6737 42.1904 51.4649 42.3992L46.1862 47.6779L32.6347 34.124C36.8113 29.5452 42.8251 26.668 49.4994 26.668C50.0795 26.668 50.6518 26.6912 51.2241 26.7376C51.1429 27.4492 51.1004 28.1685 51.1004 28.8994C51.1004 39.3752 59.6235 47.8983 70.0993 47.8983C70.8302 47.8983 71.5495 47.8558 72.2572 47.7746C72.2997 48.3508 72.3229 48.927 72.3229 49.4993L72.3253 49.5ZM56.2807 81.0645C55.9095 81.1418 55.604 81.4048 55.4686 81.7567L53.7477 86.2156C53.6008 86.5984 53.129 86.8537 52.5799 86.8537H46.4194C45.8664 86.8537 45.3946 86.5984 45.2477 86.2195L43.5268 81.7567C43.3915 81.4048 43.0859 81.1418 42.7147 81.0645C38.8823 80.2446 35.2704 78.748 31.979 76.6172C31.6619 76.4123 31.2597 76.3813 30.9155 76.5322L26.5416 78.4696C26.1704 78.6359 25.6561 78.4851 25.2654 78.0906L20.9071 73.7323C20.5165 73.3417 20.3657 72.8312 20.532 72.46L22.4733 68.0824C22.628 67.7343 22.5971 67.336 22.3883 67.0188C20.2497 63.7163 18.7531 60.1044 17.9371 56.2831C17.8598 55.9119 17.5968 55.6064 17.2449 55.471L12.7899 53.754C12.4109 53.6071 12.1518 53.1353 12.1518 52.5823V46.4218C12.1518 45.8688 12.4071 45.397 12.786 45.2501L17.2488 43.5292C17.6007 43.3939 17.8637 43.0884 17.941 42.7171C18.7609 38.8886 20.2574 35.2805 22.3883 31.9855C22.5932 31.6684 22.6242 31.2662 22.4733 30.922L20.532 26.5482C20.3657 26.1731 20.5166 25.6626 20.9071 25.272L25.2655 20.9137C25.656 20.5231 26.1704 20.3684 26.5455 20.5386L30.9231 22.476C31.2712 22.6307 31.6695 22.5959 31.9866 22.3909C35.2777 20.2601 38.8896 18.7596 42.7182 17.9398C43.0895 17.8586 43.395 17.5995 43.5304 17.2476L45.2512 12.7926C45.3982 12.4097 45.87 12.1545 46.423 12.1545H52.5834C53.1326 12.1545 53.6005 12.4097 53.7474 12.7887L55.3523 16.9459C53.5811 19.1271 52.2817 21.7064 51.6127 24.5256C50.9166 24.4676 50.2089 24.4328 49.5012 24.4328C41.8248 24.4328 34.9416 27.9017 30.3398 33.3544C30.3282 33.366 30.3166 33.3737 30.305 33.3853C30.247 33.4433 30.1967 33.5091 30.1503 33.5748C27.13 37.2371 25.1268 41.7694 24.5776 46.7352C24.5776 46.7468 24.5738 46.7545 24.5738 46.7661C24.4771 47.6672 24.423 48.5798 24.423 49.5042C24.423 63.3295 35.6727 74.5751 49.498 74.5751C53.5508 74.5751 57.5495 73.5928 61.1107 71.7288L66.3933 77.0114C63.2686 78.9334 59.8693 80.2985 56.2804 81.0642L56.2807 81.0645ZM26.6698 49.4274L45.3948 68.1524C45.6037 68.3612 45.8898 68.4811 46.1876 68.4811C46.4854 68.4811 46.7716 68.3612 46.9804 68.1524L52.2591 62.8737L59.4443 70.059C56.3622 71.5479 52.9552 72.3291 49.5014 72.3291C36.9136 72.3291 26.6704 62.0883 26.6704 49.5005V49.427L26.6698 49.4274ZM84.0469 76.1029C84.3447 76.1029 84.6309 75.983 84.8397 75.7742L86.5567 74.0572L86.3517 86.3283L74.0807 86.541L75.7977 84.824C76.2346 84.387 76.2346 83.6754 75.7977 83.2345L53.0541 60.4909C52.6171 60.0539 51.9055 60.0539 51.4685 60.4909L46.1898 65.7696L26.8691 46.4531C27.3951 42.5201 28.9265 38.9004 31.1965 35.865L45.389 50.0575C45.826 50.4945 46.5375 50.4945 46.9745 50.0575L52.2532 44.7788L83.2518 75.7749C83.4606 75.9876 83.7468 76.1036 84.0446 76.1036L84.0469 76.1029ZM86.8506 52.5822C86.8506 53.1352 86.5954 53.607 86.2164 53.7539L81.7575 55.4709C81.4056 55.6063 81.1426 55.9118 81.0653 56.283C80.3034 59.8525 78.946 63.244 77.0241 66.3695L71.7415 61.0869C73.5939 57.5291 74.5723 53.5421 74.5723 49.5006C74.5723 48.8007 74.5413 48.093 74.4833 47.3891C77.3025 46.7201 79.882 45.4207 82.063 43.6496L86.2164 45.2506C86.5954 45.3975 86.8545 45.8693 86.8545 46.4223L86.8506 52.5822ZM63.7984 26.3315C63.1294 24.9973 63.0791 23.4659 63.6592 22.1356C64.3321 20.581 65.7939 19.4054 67.7739 18.8176C68.1722 18.7016 68.5744 18.6165 68.9805 18.5585V17.5066C68.9805 16.8878 69.4832 16.3851 70.102 16.3851C70.7207 16.3851 71.2235 16.8878 71.2235 17.5066V18.5392C73.1029 18.7789 74.8239 19.6413 75.9221 21.0103C76.3127 21.4937 76.2354 22.2014 75.752 22.5881C75.2686 22.9748 74.5608 22.9013 74.1741 22.4179C72.9869 20.9446 70.5622 20.3335 68.4081 20.9678C67.0778 21.3622 66.1226 22.0931 65.7166 23.0251C65.3995 23.756 65.4304 24.572 65.8055 25.3223C66.6447 26.9968 67.8861 27.2326 70.013 27.5034C71.8886 27.7432 74.2283 28.0448 75.8795 30.311C76.9314 31.7496 77.2215 33.4975 76.6761 35.1102C76.0574 36.9393 74.4679 38.316 72.2056 38.9851C71.8808 39.0818 71.5521 39.1553 71.2234 39.2133V40.2883C71.2234 40.9071 70.7206 41.4098 70.1019 41.4098C69.4831 41.4098 68.9804 40.9071 68.9804 40.2883V39.3138C66.8534 39.1437 64.8734 38.2156 63.6359 36.6841C63.2454 36.2007 63.3227 35.4969 63.8061 35.1063C64.2895 34.7157 64.9934 34.7931 65.3839 35.2765C66.6601 36.8582 69.2627 37.5156 71.5714 36.8311C73.1183 36.3748 74.174 35.5086 74.553 34.3909C74.8624 33.4821 74.6845 32.4767 74.0696 31.6336C72.9868 30.1486 71.4787 29.9552 69.7306 29.731C67.7158 29.4758 65.2138 29.1548 63.7984 26.3318L63.7984 26.3315Z" fill="#BA6EB2"/>
</svg>

<svg xmlns="http://www.w3.org/2000/svg" width="99" height="99" fill="none" viewBox="0 0 99 99"><path fill="#BA6EB2" d="m87.021 43.154-3.129-1.207A18.94 18.94 0 0 0 89.095 28.9c0-10.475-8.52-18.999-18.997-18.999a18.93 18.93 0 0 0-13.052 5.206l-1.21-3.133C55.35 10.713 54.07 9.9 52.578 9.9h-6.16c-1.493 0-2.777.813-3.264 2.073l-1.504 3.898a34.3 34.3 0 0 0-10.372 4.304l-3.825-1.69c-1.233-.549-2.714-.22-3.778.84l-4.358 4.358c-1.056 1.056-1.385 2.533-.843 3.77l1.697 3.83a34.2 34.2 0 0 0-4.3 10.371l-3.902 1.504c-1.257.487-2.073 1.768-2.073 3.264v6.16c0 1.497.812 2.777 2.073 3.264l3.898 1.501a34 34 0 0 0 4.304 10.375l-1.697 3.829c-.546 1.233-.213 2.714.843 3.766l4.358 4.359c1.06 1.06 2.545 1.392 3.774.843l3.821-1.694a34.2 34.2 0 0 0 10.375 4.3l1.509 3.906c.487 1.257 1.77 2.069 3.263 2.069h6.16c1.494 0 2.77-.812 3.26-2.073l1.505-3.902a34.3 34.3 0 0 0 10.677-4.49l5.395 5.395-2.889 2.889a1.124 1.124 0 0 0 .793 1.918h.02l16.133-.278a1.12 1.12 0 0 0 1.102-1.102l.271-16.134a1.122 1.122 0 0 0-1.918-.812L84.037 73.4l-5.395-5.395a34.4 34.4 0 0 0 4.475-10.651l3.898-1.5c1.257-.488 2.073-1.768 2.073-3.264v-6.16c.003-1.509-.809-2.79-2.07-3.276zM70.098 12.147c9.235 0 16.752 7.518 16.752 16.757 0 9.238-7.514 16.756-16.752 16.756-9.239 0-16.757-7.517-16.757-16.756.004-9.243 7.518-16.757 16.757-16.757M72.325 49.5a22.9 22.9 0 0 1-2.258 9.916L53.05 42.399a1.124 1.124 0 0 0-1.585 0l-5.279 5.279-13.551-13.554c4.176-4.579 10.19-7.456 16.864-7.456q.868 0 1.725.07-.123 1.066-.124 2.161c0 10.476 8.523 19 19 19q1.096-.001 2.157-.124.065.865.066 1.724zM56.281 81.064c-.371.078-.677.34-.812.693l-1.721 4.459c-.147.382-.619.638-1.168.638h-6.16c-.554 0-1.025-.256-1.172-.635l-1.721-4.462a1.12 1.12 0 0 0-.812-.693 32 32 0 0 1-10.736-4.447 1.13 1.13 0 0 0-1.063-.085l-4.374 1.938c-.372.166-.886.015-1.277-.38l-4.358-4.358c-.39-.39-.541-.9-.375-1.272l1.941-4.378a1.11 1.11 0 0 0-.085-1.063 32 32 0 0 1-4.45-10.736 1.12 1.12 0 0 0-.693-.812l-4.455-1.717c-.38-.147-.638-.619-.638-1.172v-6.16c0-.553.255-1.025.634-1.172l4.463-1.72c.352-.136.615-.442.692-.813a32 32 0 0 1 4.447-10.731 1.13 1.13 0 0 0 .085-1.064l-1.941-4.374c-.166-.375-.015-.885.375-1.276l4.358-4.358c.391-.39.905-.546 1.28-.375l4.378 1.937c.348.155.747.12 1.064-.085a32 32 0 0 1 10.731-4.451c.371-.081.677-.34.812-.692l1.721-4.455c.147-.383.619-.638 1.172-.638h6.16c.55 0 1.017.255 1.164.634l1.605 4.157a19 19 0 0 0-3.74 7.58 26 26 0 0 0-2.11-.093c-7.677 0-14.56 3.469-19.162 8.921l-.035.031a1.4 1.4 0 0 0-.155.19 25 25 0 0 0-5.572 13.16l-.004.031a26 26 0 0 0-.151 2.738c0 13.826 11.25 25.071 25.075 25.071 4.053 0 8.052-.982 11.613-2.846l5.282 5.282a32 32 0 0 1-10.113 4.053M26.67 49.427l18.725 18.725a1.125 1.125 0 0 0 1.585 0l5.28-5.278 7.184 7.185a22.9 22.9 0 0 1-9.943 2.27c-12.587 0-22.83-10.24-22.83-22.828zm57.377 26.676c.298 0 .584-.12.793-.329l1.717-1.717-.205 12.271-12.271.213 1.717-1.717a1.13 1.13 0 0 0 0-1.59L53.054 60.492a1.123 1.123 0 0 0-1.586 0L46.19 65.77 26.87 46.453a22.7 22.7 0 0 1 4.326-10.588L45.39 50.057a1.123 1.123 0 0 0 1.585 0l5.28-5.278 30.998 30.996c.209.213.495.329.793.329zm2.804-23.52c0 .552-.256 1.024-.635 1.17l-4.459 1.718c-.351.135-.614.44-.692.812a31.9 31.9 0 0 1-4.04 10.087l-5.284-5.283a25.13 25.13 0 0 0 2.742-13.698 19 19 0 0 0 7.58-3.74l4.153 1.602c.38.147.639.618.639 1.171zM63.798 26.331c-.669-1.335-.719-2.866-.139-4.196.673-1.555 2.135-2.73 4.115-3.318q.597-.174 1.207-.26v-1.051a1.122 1.122 0 0 1 2.243 0v1.032c1.879.24 3.6 1.102 4.698 2.471a1.123 1.123 0 0 1-1.748 1.408c-1.187-1.473-3.612-2.084-5.766-1.45-1.33.394-2.285 1.125-2.691 2.057-.317.731-.287 1.547.088 2.297.84 1.675 2.081 1.91 4.208 2.181 1.876.24 4.215.542 5.866 2.808 1.052 1.439 1.343 3.187.797 4.8-.619 1.828-2.208 3.205-4.47 3.874-.325.097-.654.17-.983.228v1.075a1.122 1.122 0 0 1-2.243 0v-.974c-2.127-.17-4.107-1.098-5.344-2.63a1.12 1.12 0 0 1 .17-1.578 1.12 1.12 0 0 1 1.578.17c1.276 1.582 3.879 2.24 6.187 1.555 1.547-.456 2.603-1.322 2.982-2.44.31-.909.132-1.914-.483-2.757-1.083-1.485-2.591-1.679-4.34-1.903-2.014-.255-4.516-.576-5.932-3.4"/></svg>
